lib/flags/ke-kenia.svg

<svg xmlns="http://www.w3.org/2000/svg" fill="none" aria-hidden="true" viewBox="0 0 42 30"><g id="Country=KE - Kenia, Size=sm (36x24)" filter="url(#filter0_dd_91_27033)"><g clip-path="url(#clip0_91_27033)"><g id="Group 26"><g id="flag"><mask id="mask0_91_27033" width="36" height="24" x="3" y="2" maskUnits="userSpaceOnUse" style="mask-type:alpha"><rect id="mask" width="36" height="24" x="3" y="2" fill="white"/></mask><g mask="url(#mask0_91_27033)"><g id="contents"><path id="top" fill="#272727" fill-rule="evenodd" d="M3 2V10H39V2H3Z" clip-rule="evenodd"/><path id="bottom" fill="#4E8B1D" fill-rule="evenodd" d="M3 18V26H39V18H3Z" clip-rule="evenodd"/><path id="bottom_2" fill="#E31D1C" stroke="#F7FCFF" stroke-width="2" d="M3 9H2V10V18V19H3H39H40V18V10V9H39H3Z"/></g></g></g><g id="Oval"><path id="Path" fill="white" d="M24.3971 5.92904C24.6112 5.53885 25.1868 5.11276 26.1239 4.65077C26.1561 4.63489 26.195 4.63399 26.2281 4.64833C26.2841 4.67262 26.3074 4.73266 26.2797 4.78232L16.5695 22.4791L16.064 22.2599L24.6234 6.66033C24.2358 6.60421 24.1604 6.36045 24.3971 5.92904Z"/><path id="Path_2" fill="white" d="M17.5925 5.92904C17.8292 6.36045 17.7538 6.60421 17.3662 6.66033L25.9256 22.2599L25.4201 22.4791L15.7099 4.78232C15.6823 4.73266 15.7055 4.67262 15.7615 4.64833C15.7946 4.63399 15.8335 4.63489 15.8657 4.65077C16.8028 5.11276 17.3784 5.53885 17.5925 5.92904Z"/><path id="Mask" fill="#E31D1C" fill-rule="evenodd" d="M21 22C22.1213 22 26.625 18.4183 26.625 14C26.625 9.58172 22.1213 6 21 6C19.8787 6 15.375 9.58172 15.375 14C15.375 18.4183 19.8787 22 21 22Z" clip-rule="evenodd"/><mask id="mask1_91_27033" width="12" height="16" x="15" y="6" maskUnits="userSpaceOnUse" style="mask-type:alpha"><path id="Mask_2" fill="white" fill-rule="evenodd" d="M21 22C22.1213 22 26.625 18.4183 26.625 14C26.625 9.58172 22.1213 6 21 6C19.8787 6 15.375 9.58172 15.375 14C15.375 18.4183 19.8787 22 21 22Z" clip-rule="evenodd"/></mask><g mask="url(#mask1_91_27033)"><path id="Oval_2" fill="#272727" d="M10.3125 21C14.6617 21 18.1875 17.866 18.1875 14C18.1875 10.134 14.6617 7 10.3125 7C5.96326 7 2.4375 10.134 2.4375 14C2.4375 17.866 5.96326 21 10.3125 21Z"/><path id="Oval_3" fill="#272727" d="M31.6875 21C36.0367 21 39.5625 17.866 39.5625 14C39.5625 10.134 36.0367 7 31.6875 7C27.3383 7 23.8125 10.134 23.8125 14C23.8125 17.866 27.3383 21 31.6875 21Z"/><path id="Combined Shape" fill="#F7FCFF" fill-rule="evenodd" d="M21.2249 12.9299C21.7385 12.6056 22.125 11.1932 22.125 9.49985C22.125 7.80652 21.7385 6.39405 21.2249 6.06982V12.9299ZM20.6624 12.8396C20.206 12.3935 19.875 11.067 19.875 9.49985C19.875 7.93273 20.206 6.60618 20.6624 6.16013V12.8396ZM20.9989 5.99985H21.0011C21.0007 5.99985 21.0004 5.99985 21 5.99985C20.9996 5.99985 20.9993 5.99985 20.9989 5.99985ZM20.6624 15.1601V21.8396C20.206 21.3935 19.875 20.067 19.875 18.4998C19.875 16.9327 20.206 15.6062 20.6624 15.1601ZM21.2249 21.9299V15.0698C21.7385 15.394 22.125 16.8065 22.125 18.4998C22.125 20.1932 21.7385 21.6056 21.2249 21.9299Z" clip-rule="evenodd"/><path id="Oval_4" fill="#F7FCFF" d="M21 13C21.6213 13 22.125 13.4477 22.125 14C22.125 14.5523 21.6213 15 21 15C20.3787 15 19.875 14.5523 19.875 14C19.875 13.4477 20.3787 13 21 13Z"/></g></g></g></g></g><defs><filter id="filter0_dd_91_27033" width="42" height="30" x="0" y="0" color-interpolation-filters="sRGB" filterUnits="userSpaceOnUse"><feFlood flood-opacity="0" result="BackgroundImageFix"/><feColorMatrix in="SourceAlpha" result="hardAlpha" values="0 0 0 0 0 0 0 0 0 0 0 0 0 0 0 0 0 0 127 0"/><feOffset dy="1"/><feGaussianBlur stdDeviation="1"/><feColorMatrix values="0 0 0 0 0.0627451 0 0 0 0 0.0941176 0 0 0 0 0.156863 0 0 0 0.06 0"/><feBlend in2="BackgroundImageFix" result="effect1_dropShadow_91_27033"/><feColorMatrix in="SourceAlpha" result="hardAlpha" values="0 0 0 0 0 0 0 0 0 0 0 0 0 0 0 0 0 0 127 0"/><feOffset dy="1"/><feGaussianBlur stdDeviation="1.5"/><feColorMatrix values="0 0 0 0 0.0627451 0 0 0 0 0.0941176 0 0 0 0 0.156863 0 0 0 0.1 0"/><feBlend in2="effect1_dropShadow_91_27033" result="effect2_dropShadow_91_27033"/><feBlend in="SourceGraphic" in2="effect2_dropShadow_91_27033" result="shape"/></filter><clipPath id="clip0_91_27033"><rect width="36" height="24" x="3" y="2" fill="white" rx="2"/></clipPath></defs></svg>

<svg xmlns="http://www.w3.org/2000/svg" fill="none" aria-hidden="true" viewBox="0 0 42 30"><g filter="url(#a)"><g clip-path="url(#b)"><mask id="c" width="36" height="24" x="3" y="2" maskUnits="userSpaceOnUse" style="mask-type:alpha"><path fill="#fff" d="M3 2h36v24H3z"/></mask><g mask="url(#c)"><path fill="#272727" fill-rule="evenodd" d="M3 2v8h36V2H3Z" clip-rule="evenodd"/><path fill="#4E8B1D" fill-rule="evenodd" d="M3 18v8h36v-8H3Z" clip-rule="evenodd"/><path fill="#E31D1C" stroke="#F7FCFF" stroke-width="2" d="M3 9H2v10h38V9H3Z"/></g><path fill="#fff" d="M24.397 5.929c.214-.39.79-.816 1.727-1.278a.125.125 0 0 1 .104-.003c.056.025.08.085.052.134L16.57 22.48l-.506-.22 8.56-15.599c-.388-.056-.464-.3-.227-.731Z"/><path fill="#fff" d="M17.593 5.929c.236.431.16.675-.227.731l8.56 15.6-.506.22-9.71-17.698c-.028-.05-.005-.11.051-.134a.125.125 0 0 1 .105.003c.937.462 1.512.888 1.727 1.278Z"/><path fill="#E31D1C" fill-rule="evenodd" d="M21 22c1.121 0 5.625-3.582 5.625-8S22.121 6 21 6c-1.121 0-5.625 3.582-5.625 8s4.504 8 5.625 8Z" clip-rule="evenodd"/><mask id="d" width="12" height="16" x="15" y="6" maskUnits="userSpaceOnUse" style="mask-type:alpha"><path fill="#fff" fill-rule="evenodd" d="M21 22c1.121 0 5.625-3.582 5.625-8S22.121 6 21 6c-1.121 0-5.625 3.582-5.625 8s4.504 8 5.625 8Z" clip-rule="evenodd"/></mask><g mask="url(#d)"><path fill="#272727" d="M10.313 21c4.349 0 7.874-3.134 7.874-7s-3.525-7-7.875-7c-4.349 0-7.874 3.134-7.874 7s3.525 7 7.874 7Zm21.375 0c4.349 0 7.875-3.134 7.875-7s-3.526-7-7.876-7c-4.349 0-7.875 3.134-7.875 7s3.526 7 7.875 7Z"/><path fill="#F7FCFF" fill-rule="evenodd" d="M21.225 12.93c.513-.324.9-1.737.9-3.43s-.387-3.106-.9-3.43v6.86Zm-.563-.09c-.456-.447-.787-1.773-.787-3.34s.331-2.894.787-3.34v6.68ZM21 6Zm-.337 9.16v6.68c-.456-.447-.787-1.773-.787-3.34s.331-2.894.787-3.34Zm.563 6.77v-6.86c.513.324.9 1.736.9 3.43 0 1.693-.387 3.106-.9 3.43Z" clip-rule="evenodd"/><path fill="#F7FCFF" d="M21 13c.621 0 1.125.448 1.125 1s-.504 1-1.125 1-1.125-.448-1.125-1 .504-1 1.125-1Z"/></g></g></g><defs><clipPath id="b"><rect width="36" height="24" x="3" y="2" fill="#fff" rx="2"/></clipPath><filter id="a" width="42" height="30" x="0" y="0" color-interpolation-filters="sRGB" filterUnits="userSpaceOnUse"><feFlood flood-opacity="0" result="BackgroundImageFix"/><feColorMatrix in="SourceAlpha" result="hardAlpha" values="0 0 0 0 0 0 0 0 0 0 0 0 0 0 0 0 0 0 127 0"/><feOffset dy="1"/><feGaussianBlur stdDeviation="1"/><feColorMatrix values="0 0 0 0 0.0627451 0 0 0 0 0.0941176 0 0 0 0 0.156863 0 0 0 0.06 0"/><feBlend in2="BackgroundImageFix" result="effect1_dropShadow_91_27033"/><feColorMatrix in="SourceAlpha" result="hardAlpha" values="0 0 0 0 0 0 0 0 0 0 0 0 0 0 0 0 0 0 127 0"/><feOffset dy="1"/><feGaussianBlur stdDeviation="1.5"/><feColorMatrix values="0 0 0 0 0.0627451 0 0 0 0 0.0941176 0 0 0 0 0.156863 0 0 0 0.1 0"/><feBlend in2="effect1_dropShadow_91_27033" result="effect2_dropShadow_91_27033"/><feBlend in="SourceGraphic" in2="effect2_dropShadow_91_27033" result="shape"/></filter></defs></svg>
